svg/vector_triangle.svg

<svg xmlns="http://www.w3.org/2000/svg" viewBox="0 0 24 24"><path d="M9 3v6h.73l-3.94 7H2v6h6v-2h8v2h6v-6h-3.79l-3.94-7H15V3m-4 2h2v2h-2m1 2.04 4 7.11V18H8v-1.85M4 18h2v2H4m14-2h2v2h-2"/></svg>

<?xml version="1.0" encoding="UTF-8"?><!DOCTYPE svg PUBLIC "-//W3C//DTD SVG 1.1//EN" "http://www.w3.org/Graphics/SVG/1.1/DTD/svg11.dtd"><svg xmlns="http://www.w3.org/2000/svg" xmlns:xlink="http://www.w3.org/1999/xlink" version="1.1" id="mdi-vector-triangle" width="24" height="24" viewBox="0 0 24 24"><path d="M9,3V9H9.73L5.79,16H2V22H8V20H16V22H22V16H18.21L14.27,9H15V3M11,5H13V7H11M12,9.04L16,16.15V18H8V16.15M4,18H6V20H4M18,18H20V20H18" /></svg>
